X:1
T:gregoriskā mel. harm. A. Solims
T:Slava Tev, Kristu! (2) (Laus tibi, Christe)
T:Copyright © 
T:Copyright © 
C:gregoriskā mel.
C:harm. A. Solims
Z:Copyright ©
%%score [ ( 1 2 ) ( 3 4 ) ]
L:1/8
Q:1/4=80
M:4/4
K:D
V:1 treble nm="P1" snm="S."
V:2 treble 
V:3 bass nm="P2" snm="B."
V:4 bass 
V:1
"^Andante" A2 AG F2 F2 | (3FFF (3GGF ED !fermata!D2 |] %2
w: R. va Tev, Kris- tu,|mū- žī- gās go- dī- bas Ka- ra- li!|
"^(\"C\" g.)""^(\"B\" g.)""^(\"A\" g.)""^ka atdeva savu vienpiedzi""^Dievs tā mīlēja pasauli, |""^Kungs  saka:  es esmu pa""^Versus""^(Gavēņa IV svētdienā)" B16"^-""^-""^sau""^mu" A2"^-""^-""^les""^šo" G2"^gais""^Dē" A2"^-""^-" A2"^ma;""^lu;" A4 | %3
w: Es~celšos,~iešu~pie~sava~tē- va un sa- cī- šu:|
"^kas""^ik""^-" F2"^viens,""^man" G2"^kas viņam tic, iegūst mū""^seko,   tam   būs  dzī" A16"^-""^-""^vī""^žī" G2"^-""^-""^bas""^go" F2"^gais""^dzī" !tenuto!E2"^-""^-""^ma.""^vi.""^-ma.""^vai:" !fermata!D4 || %4
w: "Tēvs, es sagrēkoju~pret~debesīm un pret te- vi!"|
[K:G][M:3/4]"^R.""^Largo"[Q:1/4=50] (3GGG (GA) G2 | (3FGA (3AGF (3EE!fermata!E |] %6
w: Sla- va Tev, Kris- * tu,|mū- žī- gās go- dī- bas Ka- ra- li!|
"^Versus""^(Palmu svētdienā)" G16 A2 B2 B4 | A16 G2 F2 (G2 F2) E4 | E16 F2 G2 G4 | %9
w: Mūsu~~~dēļ~~~Kristus~~~kļuva~~~paklausīgs līdz nā- vei,|līdz~~~pat krus- ta nā- * vei.|Tādēļ~Dievs~viņu~paaugstināja~pā- ri vi- sam|
 F16 E2 F2 (G2 F2) !fermata!E4 || %10
w: un~deva~viņam~vārdu,~kas~ir~pāri~pār kat- ru vār- * du.|
V:2
 F2 FE D2 E2 | (3D^DD (3B,C=D B,_B, A,2 |] x28 | x30 ||[K:G][M:3/4] (3DDD (EF) E2 | %5
 (3DDF (3EE^D (3B,CB, |] x24 | x28 | x24 | x28 || %10
V:3
 A,2 A,A, A,2 ^A,2 | (3B,=A,A, (3G,A,A, G,G, F,2 |] z28 | z30 ||[K:G][M:3/4] (3B,B,B, (B,C) B,2 | %5
 (3A,B,C (3CB,A, (3G,A,G, |] z24 | z28 | z24 | z28 || %10
V:4
 D,2 C,C, D,2 C,2 | (3B,,B,,B,, (3E,E,D, G,,G,, !fermata!D,2 |] x28 | x30 || %4
[K:G][M:3/4] (3G,G,F, (E,^D,) E,2 | (3=D,D,D, (3A,,B,,B,, (3E,E,!fermata!E, |] x24 | x28 | x24 | %9
 x28 || %10

